packages/kaspersky-hexa-ui-icons/src/iconsSVGs/16/Shield.svg

<svg width="16" height="16" viewBox="0 0 16 16" fill="none" xmlns="http://www.w3.org/2000/svg">
<path fill-rule="evenodd" clip-rule="evenodd" d="M8.16132 2.31616C8.06023 2.26369 7.93992 2.26369 7.83883 2.31616L3.5793 4.52718V7.5192C3.5793 8.38521 3.66883 9.19261 3.97729 9.89845C4.69311 11.5365 5.75495 12.5315 6.63299 13.1183C7.07317 13.4125 7.46698 13.6038 7.74644 13.7203C7.84151 13.76 7.92304 13.7908 7.9883 13.814C8.05384 13.7884 8.13578 13.7545 8.23136 13.7116C8.51031 13.5862 8.90297 13.3842 9.34225 13.0831C10.2201 12.4814 11.2772 11.4891 11.9961 9.92109C12.3259 9.20182 12.4209 8.37056 12.4209 7.4774V4.52718L8.16132 2.31616ZM8.00008 14.5001C7.8368 15.1293 7.8365 15.1292 7.83618 15.1291L7.83548 15.1289L7.83388 15.1285L7.82982 15.1274L7.81835 15.1243C7.80925 15.1218 7.79722 15.1184 7.78242 15.1141C7.75283 15.1054 7.71211 15.0929 7.66142 15.0762C7.56008 15.0428 7.41858 14.9921 7.24617 14.9202C6.90172 14.7766 6.43141 14.5472 5.91063 14.1992C4.86676 13.5015 3.61939 12.3259 2.78607 10.419C2.3725 9.47266 2.2793 8.45628 2.2793 7.5192V4.13223C2.2793 3.88957 2.41446 3.66711 2.62984 3.55532L7.23991 1.16234C7.7165 0.914961 8.28366 0.91496 8.76024 1.16234L13.3703 3.55532C13.5857 3.66711 13.7209 3.88957 13.7209 4.13223V7.4774C13.7209 8.44228 13.6224 9.49323 13.1778 10.4629C12.34 12.2901 11.1036 13.4518 10.0772 14.1554C9.56439 14.5069 9.10222 14.7454 8.76437 14.8973C8.59526 14.9733 8.45668 15.0279 8.3577 15.0643C8.30819 15.0825 8.26852 15.0962 8.23981 15.1058C8.22545 15.1105 8.21383 15.1143 8.20508 15.1171L8.19413 15.1205L8.1903 15.1217L8.1888 15.1221L8.18816 15.1223C8.18787 15.1224 8.18759 15.1225 8.00008 14.5001ZM8.00008 14.5001L8.18759 15.1225C8.07349 15.1569 7.95214 15.1592 7.8368 15.1293L8.00008 14.5001Z" fill="black"/>
</svg>

<svg xmlns="http://www.w3.org/2000/svg" width="16" height="16" fill="none" viewBox="0 0 16 16"><path fill="#000" fill-rule="evenodd" d="M8.1613 2.3162a.35.35 0 0 0-.3225 0l-4.2595 2.211v2.992c0 .866.0895 1.6734.398 2.3793.7158 1.638 1.7777 2.633 2.6557 3.2198.4402.2942.834.4855 1.1134.602a5 5 0 0 0 .2419.0937 5.4 5.4 0 0 0 .243-.1024c.279-.1254.6717-.3274 1.111-.6285.8778-.6017 1.9349-1.594 2.6538-3.162.3298-.7193.4248-1.5505.4248-2.4437V4.5272zM8.0001 14.5c-.1633.6292-.1636.6291-.164.629l-.0006-.0002-.0016-.0004-.004-.0011-.0116-.0031-.0359-.0102a4 4 0 0 1-.121-.0379 5.8 5.8 0 0 1-.4152-.156c-.3445-.1436-.8148-.373-1.3356-.721-1.0438-.6977-2.2912-1.8733-3.1245-3.7802-.4136-.9463-.5068-1.9627-.5068-2.8998v-3.387a.65.65 0 0 1 .3505-.5769L7.24 1.1623a1.65 1.65 0 0 1 1.5203 0l4.6101 2.393a.65.65 0 0 1 .3506.577v3.3451c0 .9649-.0985 2.0158-.5431 2.9855-.8378 1.8272-2.0742 2.9889-3.1006 3.6925-.5128.3515-.975.59-1.3128.7419a6.3 6.3 0 0 1-.4067.167 4 4 0 0 1-.1526.0528l-.011.0034-.0038.0012-.0015.0004-.0006.0002c-.0003.0001-.0006.0002-.1881-.6222m0 0 .1875.6224a.65.65 0 0 1-.3508.0068z"/></svg>
